X:1
T:Title
%%score { 1 | ( 2 3 ) }
L:1/8
Q:1/4=90
M:6/8
K:F
V:1 treble nm="Grand Piano"
V:2 bass 
V:3 bass 
V:1
 A2 A A2 A | AGF A2 c | [Ec]2 [EG] [EG]2 [EG] | [EG][_E^F][=EG] [GB]2 A | A2 A B2 c | %5
w: John~R.~Sweney * * *|||||
 d2 f [Fe]2 [Fd] | [Fc]2 [FA] [EA]2 [EG] | F6 | .A3 .[Ac]3 | [Ac][GB][FA] [Ac]2 [FA] | %10
w: |||||
 .[EG]3 .[GB]3 | [Bd][Ac][CGB] [CFA]3 | .[FAc]3 .[Af]3 | [FA][Ac][Ff] [Fe]2 [Fd] | %14
w: ||||
 [Fc]2 [FA] [EA]2 G | F6 |] %16
w: ||
V:2
 [F,CF]2 [F,CF] [F,CF]2 [F,CF] | .C3 z3 | [C,G,]2 [C,C] [C,C]2 [C,C] | [C,C]2 [C,C] [F,C]2 [F,CF] | %4
 [F,CF]2 [F,CF] [F,CE]2[K:treble] [A,CF] | [B,F]2[K:bass] [B,,DF] [B,,C]2 [B,,B,] | %6
 [C,A,]2 [C,C] [C,C]2 [C,B,] | [F,A,]6 | .[F,CF]3 .[F,F]3 | [F,F][F,C][F,C] [F,F]2 [F,C] | %10
 .[C,C]3 .[C,C]3 | .C3 z3 | .F,3 .[F,C]3 | [F,C][F,C][F,A,] [B,,B,]2 [B,,B,] | %14
 [C,A,]2 [C,C] [C,C]2 [C,B,C] | [F,A,C]6 |] %16
V:3
 x6 | [F,F]-[F,B,F][F,A,C] [F,CF]2 [F,A,F] | x6 | x6 | x5[K:treble] x | x2[K:bass] x4 | x6 | x6 | %8
 x6 | x6 | x6 | C,D,E, F,3 | x6 | x6 | x6 | x6 |] %16

